alura/assets/api/cursos/entrevista-f1rst-refletindo-sobre-papel-estrategico-capacitacoes.svg

<svg width="50" height="50" viewBox="0 0 50 50" fill="none" xmlns="http://www.w3.org/2000/svg">
<path d="M46.9996 26.3L46.4996 22.3L29.2996 4.69999L24.8996 2.89999C20.7996 2.89999 7.09961 15.8 7.09961 18.4L2.79961 22.4L2.59961 28.3L16.7996 42.8L41.5996 34C42.1996 33.7 47.7996 28 46.9996 26.4V26.3Z" fill="#CE5252"/>
<path d="M28.9002 45.7C26.5002 48.1 22.6002 48.1 20.2002 45.7L4.0002 29.5C1.6002 27.1 1.6002 23.2 4.0002 20.8L20.2002 4.50001C22.6002 2.10001 26.5002 2.10001 28.9002 4.50001L45.1002 20.7C47.5002 23.1 47.5002 27 45.1002 29.4L37.7002 36.8" stroke="#444444" stroke-width="2.5" stroke-linecap="round" stroke-linejoin="round"/>
<path d="M15.9004 41.3H25.8004M17.4004 42.6H25.8004M20.8004 46C23.4004 46 25.5004 45.2 25.5004 44.3V44H18.4004M15.6004 39.8C15.4004 38.1 14.8004 36.5 13.8004 35C12.9004 33.6 12.1004 32.1 11.1004 30.8C10.1004 29.5 9.10039 28.2 8.40039 26.7C7.70039 25.1 7.40039 23.4 7.40039 21.5C7.40039 14.1 13.4004 8.10001 20.8004 8.10001C28.2004 8.10001 34.2004 14.1 34.2004 21.5C34.2004 28.9 33.8004 25.1 33.2004 26.7C32.5004 28.2 31.5004 29.4 30.5004 30.8C29.5004 32.1 28.7004 33.6 27.8004 35C26.8004 36.6 26.2004 38.2 26.0004 39.8H15.7004H15.6004Z" stroke="#444444" stroke-linecap="round" stroke-linejoin="round"/>
<path d="M25.8 15.8H15.9C14.8507 15.8 14 16.6506 14 17.7V18.8C14 19.8493 14.8507 20.7 15.9 20.7H25.8C26.8493 20.7 27.7 19.8493 27.7 18.8V17.7C27.7 16.6506 26.8493 15.8 25.8 15.8Z" stroke="#444444" stroke-width="0.5" stroke-miterlimit="10"/>
<path d="M25.8 22.8H15.9C14.8507 22.8 14 23.6506 14 24.7V25.8C14 26.8493 14.8507 27.7 15.9 27.7H25.8C26.8493 27.7 27.7 26.8493 27.7 25.8V24.7C27.7 23.6506 26.8493 22.8 25.8 22.8Z" stroke="#444444" stroke-width="0.5" stroke-miterlimit="10"/>
<path d="M4 29.5H35.4C37.2 29.5 38.6 28.1 38.6 26.3V15.2M28.3 46.4V34.2C28.3 32.9 27.3 31.9 26 31.9H6.6M16.8 7.5L40.9 31.6" stroke="#444444" stroke-width="0.5" stroke-linecap="round" stroke-linejoin="round"/>
</svg>

<svg xmlns="http://www.w3.org/2000/svg" viewBox="0 0 50 50"><path fill="#fcc34f" d="M47 26.3l-.5-4L29.3 4.7l-4.4-1.8c-4.1 0-17.8 12.9-17.8 15.5l-4.3 4-.2 5.9 14.2 14.5L41.6 34c.6-.3 6.2-6 5.4-7.6z"/><path fill="none" stroke="#444" stroke-linecap="round" stroke-linejoin="round" stroke-width="2.5" d="M28.9 45.7c-2.4 2.4-6.3 2.4-8.7 0L4 29.5c-2.4-2.4-2.4-6.3 0-8.7L20.2 4.5c2.4-2.4 6.3-2.4 8.7 0l16.2 16.2c2.4 2.4 2.4 6.3 0 8.7l-7.4 7.4"/><path fill="none" stroke="#444" stroke-linecap="round" stroke-linejoin="round" d="M15.6 39.8c-.2-1.7-.8-3.3-1.8-4.8-.9-1.4-1.7-2.9-2.7-4.2-1-1.3-2-2.6-2.7-4.1-.7-1.6-1-3.3-1-5.2 0-7.4 6-13.4 13.4-13.4s13.4 6 13.4 13.4-.4 3.6-1 5.2c-.7 1.5-1.7 2.7-2.7 4.1-1 1.3-1.8 2.8-2.7 4.2-1 1.6-1.6 3.2-1.8 4.8H15.7zm.3 1.5h9.9m-8.4 1.3h8.4m-5 3.4c2.6 0 4.7-.8 4.7-1.7V44h-7.1"/><rect width="13.7" height="4.9" x="14" y="15.8" fill="none" stroke="#444" stroke-miterlimit="10" stroke-width=".5" rx="1.9" ry="1.9"/><rect width="13.7" height="4.9" x="14" y="22.8" fill="none" stroke="#444" stroke-miterlimit="10" stroke-width=".5" rx="1.9" ry="1.9"/><path fill="none" stroke="#444" stroke-linecap="round" stroke-linejoin="round" stroke-width=".5" d="M4 29.5h31.4c1.8 0 3.2-1.4 3.2-3.2V15.2M28.3 46.4V34.2c0-1.3-1-2.3-2.3-2.3H6.6M16.8 7.5l24.1 24.1"/></svg>
